packages/icon/src/svg/warning.icon.svg

<svg viewBox="0 0 24 24" xmlns="http://www.w3.org/2000/svg"><path d="M13 19h-2v-2h2v2zm0-4h-2v-4h2v4zm6.531 5L12 6.9917 4.469 20h15.062zM1 22L12 3l11 19H1z" /></svg>

<?xml version="1.0" encoding="UTF-8"?>
<svg width="24px" height="24px" viewBox="0 0 24 24" version="1.1" xmlns="http://www.w3.org/2000/svg" xmlns:xlink="http://www.w3.org/1999/xlink">
    <!-- Generator: Sketch 46.1 (44463) - http://www.bohemiancoding.com/sketch -->
    <title>Icon/warning.icon</title>
    <desc>Created with Sketch.</desc>
    <defs>
        <path d="M13,19 L11,19 L11,17 L13,17 L13,19 Z M13,15 L11,15 L11,11 L13,11 L13,15 Z M19.5311054,20 L12,6.99172698 L4.46889457,20 L19.5311054,20 Z M1,22 L12,3 L23,22 L1,22 Z" id="path-1"></path>
    </defs>
    <g id="Symbols" stroke="none" stroke-width="1" fill="none" fill-rule="evenodd">
        <g id="Icon/warning">
            <mask id="mask-2" fill="white">
                <use xlink:href="#path-1"></use>
            </mask>
            <use id="Shape" fill="#000000" fill-rule="nonzero" xlink:href="#path-1"></use>
            <g id="Color/Neutral/White" mask="url(#mask-2)" fill="#FFFFFF">
                <rect id="222222-Fill" x="0" y="0" width="24" height="24"></rect>
            </g>
        </g>
    </g>
</svg>
